neru-light-classic/32x32/apps/slack.svg

<?xml version="1.0" encoding="UTF-8" standalone="no"?>
<svg
   xmlns:dc="http://purl.org/dc/elements/1.1/"
   xmlns:cc="http://creativecommons.org/ns#"
   xmlns:rdf="http://www.w3.org/1999/02/22-rdf-syntax-ns#"
   xmlns:svg="http://www.w3.org/2000/svg"
   xmlns="http://www.w3.org/2000/svg"
   xmlns:sodipodi="http://sodipodi.sourceforge.net/DTD/sodipodi-0.dtd"
   xmlns:inkscape="http://www.inkscape.org/namespaces/inkscape"
   width="32"
   version="1.1"
   height="32"
   viewBox="0 0 32 32"
   id="svg30"
   sodipodi:docname="slack.svg"
   inkscape:version="0.92.1 r">
  <metadata
     id="metadata36">
    <rdf:RDF>
      <cc:Work
         rdf:about="">
        <dc:format>image/svg+xml</dc:format>
        <dc:type
           rdf:resource="http://purl.org/dc/dcmitype/StillImage" />
      </cc:Work>
    </rdf:RDF>
  </metadata>
  <defs
     id="defs34" />
  <sodipodi:namedview
     pagecolor="#ffffff"
     bordercolor="#666666"
     borderopacity="1"
     objecttolerance="10"
     gridtolerance="10"
     guidetolerance="10"
     inkscape:pageopacity="0"
     inkscape:pageshadow="2"
     inkscape:window-width="640"
     inkscape:window-height="480"
     id="namedview32"
     showgrid="false"
     inkscape:zoom="9.5"
     inkscape:cx="-14.414075"
     inkscape:cy="30.303052"
     inkscape:current-layer="svg30" />
  <g
     id="g4781">
    <g
       id="g4768">
      <rect
         style="opacity:1;fill:#000000;fill-opacity:0;fill-rule:evenodd;stroke:none;stroke-width:1.03534329;stroke-linecap:round;stroke-linejoin:bevel;stroke-miterlimit:4;stroke-dasharray:none;stroke-dashoffset:0;stroke-opacity:1"
         id="rect4497-3-8"
         width="28.203388"
         height="28.203388"
         x="1.8983059"
         y="1.8983059"
         ry="5.575182"
         inkscape:export-filename="/home/ramil/3.png"
         inkscape:export-xdpi="71"
         inkscape:export-ydpi="71" />
    </g>
    <path
       id="path4741"
       d="M 30.101562 19.302734 L 25.615234 20.589844 L 27.970703 28.810547 C 29.240491 27.79063 30.101563 26.290524 30.101562 24.527344 L 30.101562 19.302734 z "
       style="opacity:1;fill:#d5100d;fill-opacity:1;fill-rule:evenodd;stroke:none;stroke-width:1.03534329;stroke-linecap:round;stroke-linejoin:bevel;stroke-miterlimit:4;stroke-dasharray:none;stroke-dashoffset:0;stroke-opacity:1" />
    <path
       id="path4744"
       d="M 12.171875 30.101562 L 10.671875 24.876953 L 2.6542969 27.173828 C 3.6010828 28.89413 5.3622878 30.101564 7.4726562 30.101562 L 12.171875 30.101562 z "
       style="opacity:1;fill:#390f39;fill-opacity:1;fill-rule:evenodd;stroke:none;stroke-width:1.03534329;stroke-linecap:round;stroke-linejoin:bevel;stroke-miterlimit:4;stroke-dasharray:none;stroke-dashoffset:0;stroke-opacity:1" />
    <path
       id="path4750"
       d="M 10.660156 24.880859 L 6.3847656 9.9746094 C 6.3771292 9.973746 6.3709126 9.973515 6.3632812 9.9726562 L 1.8984375 11.253906 L 1.8984375 24.527344 C 1.8984375 25.505626 2.2154048 26.376365 2.6542969 27.173828 L 10.660156 24.880859 z "
       style="opacity:1;fill:#48c39e;fill-opacity:1;fill-rule:evenodd;stroke:none;stroke-width:1.03534329;stroke-linecap:round;stroke-linejoin:bevel;stroke-miterlimit:4;stroke-dasharray:none;stroke-dashoffset:0;stroke-opacity:1" />
    <path
       id="path4759"
       d="M 25.601562 20.552734 L 10.671875 24.835938 C 10.668269 24.850688 10.669568 24.864169 10.666016 24.878906 L 10.671875 24.876953 L 12.171875 30.101562 L 24.527344 30.101562 C 25.852814 30.101563 27.016141 29.577269 27.970703 28.810547 L 25.617188 20.597656 C 25.617188 20.597656 25.615234 20.597656 25.615234 20.597656 L 25.601562 20.552734 z "
       style="opacity:1;fill:#d81768;fill-opacity:1;fill-rule:evenodd;stroke:none;stroke-width:1.03534329;stroke-linecap:round;stroke-linejoin:bevel;stroke-miterlimit:4;stroke-dasharray:none;stroke-dashoffset:0;stroke-opacity:1" />
    <path
       id="path4756"
       d="M 21.337891 5.6796875 L 21.328125 5.6816406 L 6.3847656 9.9667969 L 6.3632812 9.9726562 C 6.3709126 9.9735153 6.3771292 9.973746 6.3847656 9.9746094 L 10.660156 24.880859 L 10.666016 24.878906 C 10.669568 24.864169 10.668269 24.850688 10.671875 24.835938 L 25.601562 20.552734 L 21.337891 5.6796875 z "
       style="opacity:1;fill:#ffffff;fill-opacity:1;fill-rule:evenodd;stroke:none;stroke-width:1.03534329;stroke-linecap:round;stroke-linejoin:bevel;stroke-miterlimit:4;stroke-dasharray:none;stroke-dashoffset:0;stroke-opacity:1" />
    <path
       id="path4753"
       d="M 21.337891 5.6796875 L 25.615234 20.597656 C 25.615927 20.597799 25.616495 20.597513 25.617188 20.597656 L 25.615234 20.589844 L 30.101562 19.302734 L 30.101562 7.4726562 C 30.101563 5.9675171 29.495869 4.6180451 28.533203 3.6171875 L 21.337891 5.6796875 z "
       style="opacity:1;fill:#ecb524;fill-opacity:1;fill-rule:evenodd;stroke:none;stroke-width:1.03534329;stroke-linecap:round;stroke-linejoin:bevel;stroke-miterlimit:4;stroke-dasharray:none;stroke-dashoffset:0;stroke-opacity:1" />
    <path
       id="path4738"
       d="M 6.3847656 9.9667969 L 21.328125 5.6816406 L 20.244141 1.8984375 L 7.4726562 1.8984375 C 6.2984425 1.8984375 5.2735781 2.3418175 4.3769531 2.9570312 L 6.3847656 9.9667969 z "
       style="opacity:1;fill:#81d2e0;fill-opacity:1;fill-rule:evenodd;stroke:none;stroke-width:1.03534329;stroke-linecap:round;stroke-linejoin:bevel;stroke-miterlimit:4;stroke-dasharray:none;stroke-dashoffset:0;stroke-opacity:1" />
    <path
       id="path4728"
       d="M 20.244141 1.8984375 L 21.328125 5.6816406 L 28.533203 3.6171875 C 27.520412 2.5642152 26.110856 1.8984375 24.527344 1.8984375 L 20.244141 1.8984375 z "
       style="opacity:1;fill:#77971f;fill-opacity:1;fill-rule:evenodd;stroke:none;stroke-width:1.03534329;stroke-linecap:round;stroke-linejoin:bevel;stroke-miterlimit:4;stroke-dasharray:none;stroke-dashoffset:0;stroke-opacity:1" />
    <path
       id="rect4497-3"
       d="M 1.8984375 11.253906 L 6.3847656 9.9667969 L 4.3769531 2.9570312 C 2.9150966 3.9600755 1.8984375 5.5582192 1.8984375 7.4726562 L 1.8984375 11.253906 z "
       style="opacity:1;fill:#20a48e;fill-opacity:1;fill-rule:evenodd;stroke:none;stroke-width:1.03534329;stroke-linecap:round;stroke-linejoin:bevel;stroke-miterlimit:4;stroke-dasharray:none;stroke-dashoffset:0;stroke-opacity:1" />
  </g>
  <path
     inkscape:connector-curvature="0"
     id="path26"
     d="m 19.741335,18.018 c -10e-6,0.9617 -0.3167,1.6991 -0.95007,2.2122 -0.62876,0.5132 -1.558,0.7698 -2.7878,0.7698 -0.85067,0 -1.5904,-0.141 -2.2191,-0.423 -0.62414,-0.282 -1.1327,-0.7374 -1.5257,-1.3662 l 1.5048,-1.1512 c 0.22191,0.3144 0.43227,0.5502 0.63107,0.7074 0.19879,0.1572 0.43458,0.2797 0.70735,0.3675 0.27276,0.088 0.58714,0.1318 0.94314,0.1318 0.53166,0 0.94543,-0.09 1.2413,-0.2705 0.3005,-0.1849 0.45076,-0.4646 0.45077,-0.8391 -10e-6,-0.2126 -0.0532,-0.3906 -0.1595,-0.534 -0.10172,-0.1433 -0.25659,-0.2658 -0.46463,-0.3675 -0.20805,-0.1063 -0.56866,-0.2265 -1.0818,-0.3606 -0.4993,-0.1341 -0.97087,-0.2681 -1.4147,-0.4022 -0.4392,-0.1387 -0.82062,-0.3167 -1.1442,-0.534 -0.319,-0.2173 -0.57095,-0.4901 -0.75589,-0.8183 -0.18492,-0.3283 -0.27739,-0.742 -0.27739,-1.2414 0,-0.9107 0.30744,-1.6204 0.92233,-2.1289 0.61489,-0.5132 1.4956,-0.7698 2.6422,-0.7698 1.6597,0 2.834,0.5687 3.5229,1.706 l -1.491,1.165 c -0.26352,-0.4068 -0.55941,-0.6981 -0.88766,-0.8738 -0.32825,-0.1756 -0.7189,-0.2635 -1.172,-0.2635 -0.45308,0 -0.82293,0.083 -1.1096,0.2497 -0.28201,0.1618 -0.42302,0.4184 -0.42302,0.7697 0,0.3098 0.14794,0.5479 0.44383,0.7143 0.29589,0.1618 0.81137,0.326 1.5465,0.4924 0.40683,0.1063 0.80905,0.2219 1.2066,0.3467 0.39759,0.1202 0.75127,0.289 1.061,0.5063 0.31438,0.2173 0.56634,0.5016 0.7559,0.8529 0.18954,0.3514 0.28432,0.8022 0.28433,1.3523"
     style="fill:#5a3856;enable-background:new" />
</svg>

<svg xmlns="http://www.w3.org/2000/svg" width="32" height="32"><rect width="28.203" height="28.203" x="1.898" y="1.898" ry="5.575" fill="none"/><path d="M30.102 19.303l-4.487 1.287 2.356 8.22c1.27-1.02 2.13-2.52 2.13-4.283v-5.224z" fill="#d5100d" fill-rule="evenodd"/><path d="M12.172 30.102l-1.5-5.225-8.018 2.297c.947 1.72 2.708 2.928 4.819 2.928h4.699z" fill="#390f39" fill-rule="evenodd"/><path d="M10.66 24.88L6.385 9.976l-.022-.002-4.465 1.28v13.274c0 .979.317 1.85.756 2.647l8.006-2.293z" fill="#48c39e" fill-rule="evenodd"/><path d="M25.602 20.553l-14.93 4.283c-.004.015-.002.028-.006.043l.006-.002 1.5 5.225h12.355c1.326 0 2.49-.525 3.444-1.291l-2.354-8.213h-.002l-.013-.045z" fill="#d81768" fill-rule="evenodd"/><path d="M21.338 5.68l-.01.002L6.385 9.967l-.022.006c.008 0 .014 0 .022.002L10.66 24.88l.006-.002c.004-.015.002-.028.006-.043l14.93-4.283L21.338 5.68z" fill="#fff" fill-rule="evenodd"/><path d="M21.338 5.68l4.277 14.918h.002l-.002-.008 4.487-1.287V7.473a5.54 5.54 0 0 0-1.569-3.856L21.338 5.68z" fill="#ecb524" fill-rule="evenodd"/><path d="M6.385 9.967l14.943-4.285-1.084-3.784H7.473c-1.175 0-2.2.444-3.096 1.059l2.008 7.01z" fill="#81d2e0" fill-rule="evenodd"/><path d="M20.244 1.898l1.084 3.784 7.205-2.065a5.532 5.532 0 0 0-4.006-1.719h-4.283z" fill="#77971f" fill-rule="evenodd"/><path d="M1.898 11.254l4.487-1.287-2.008-7.01C2.915 3.96 1.898 5.558 1.898 7.473v3.78z" fill="#20a48e" fill-rule="evenodd"/><path d="M19.741 18.018c0 .962-.316 1.7-.95 2.212-.628.513-1.558.77-2.788.77-.85 0-1.59-.141-2.219-.423-.624-.282-1.132-.737-1.525-1.366l1.504-1.151c.222.314.433.55.632.707.198.157.434.28.707.368.273.088.587.131.943.131.532 0 .945-.09 1.241-.27.3-.185.451-.465.451-.84a.872.872 0 0 0-.16-.533 1.199 1.199 0 0 0-.464-.368c-.208-.106-.569-.226-1.082-.36-.5-.134-.97-.268-1.415-.403a4.439 4.439 0 0 1-1.144-.534 2.414 2.414 0 0 1-.756-.818c-.185-.328-.277-.742-.277-1.241 0-.911.307-1.62.922-2.13.615-.512 1.496-.769 2.643-.769 1.66 0 2.834.569 3.522 1.706l-1.49 1.165c-.264-.407-.56-.698-.888-.874-.328-.175-.72-.263-1.172-.263-.453 0-.823.083-1.11.25-.282.161-.423.418-.423.77 0 .309.148.547.444.713.296.162.811.326 1.546.493.407.106.81.222 1.207.347.398.12.751.289 1.061.506.314.217.566.501.756.853.19.351.284.802.284 1.352" fill="#5a3856"/></svg>
